X: 26
T:Taumatawhakatangihanga...
M:6/8
L:1/8
Q:120
C:Peter Cape
K:G
D2D|"G"G2GG2G|G2D3z|"D"F2FE2F-|F6|
F2FE2F-|F2D-D3|"G"G2GE2G-|G3D2D|!
G3G2G|G3G2G|"C"A2G-G3|E3E3|
"D"F"Chorus:"FF E2D|F2F E2D|F2F E2D|F2 FE2D|!
FFF E2DFFF E2D|F2F E2D|F2F4|
DDD DEF|"G"AG2-G3-|G3:||
